public/icons/solana.svg

<svg width="42" height="34" viewBox="0 0 42 34" fill="none" xmlns="http://www.w3.org/2000/svg">
<g clip-path="url(#clip0_88_1641)">
<path d="M6.8224 26.1199C7.07586 25.8665 7.42436 25.7186 7.79399 25.7186H41.3137C41.9262 25.7186 42.2325 26.4579 41.7995 26.8909L35.1779 33.5124C34.9245 33.7659 34.576 33.9138 34.2064 33.9138H0.686623C0.0741008 33.9138 -0.23216 33.1745 0.200829 32.7415L6.8224 26.1199Z" fill="url(#paint0_linear_88_1641)"/>
<path d="M6.82094 1.39728C7.08496 1.14382 7.43346 0.995972 7.79252 0.995972H41.3123C41.9248 0.995972 42.231 1.73522 41.798 2.16821L35.1765 8.78979C34.923 9.04325 34.5745 9.1911 34.2049 9.1911H0.685158C0.0726359 9.1911 -0.233625 8.45185 0.199365 8.01886L6.82094 1.39728Z" fill="url(#paint1_linear_88_1641)"/>
<path d="M35.1779 13.6794C34.9245 13.4259 34.576 13.2781 34.2064 13.2781H0.686623C0.0741008 13.2781 -0.23216 14.0173 0.200829 14.4503L6.8224 21.0719C7.07586 21.3254 7.42436 21.4732 7.79399 21.4732H41.3137C41.9262 21.4732 42.2325 20.734 41.7995 20.301L35.1779 13.6794Z" fill="url(#paint2_linear_88_1641)"/>
</g>
<defs>
<linearGradient id="paint0_linear_88_1641" x1="38.1116" y1="-2.95959" x2="14.9133" y2="41.4745" gradientUnits="userSpaceOnUse">
<stop stop-color="#00FFA3"/>
<stop offset="1" stop-color="#DC1FFF"/>
</linearGradient>
<linearGradient id="paint1_linear_88_1641" x1="27.9666" y1="-8.25537" x2="4.76822" y2="36.1788" gradientUnits="userSpaceOnUse">
<stop stop-color="#00FFA3"/>
<stop offset="1" stop-color="#DC1FFF"/>
</linearGradient>
<linearGradient id="paint2_linear_88_1641" x1="33.0075" y1="-5.62434" x2="9.80918" y2="38.8098" gradientUnits="userSpaceOnUse">
<stop stop-color="#00FFA3"/>
<stop offset="1" stop-color="#DC1FFF"/>
</linearGradient>
<clipPath id="clip0_88_1641">
<rect width="42" height="32.9178" fill="white" transform="translate(0 0.995972)"/>
</clipPath>
</defs>
</svg>

<svg xmlns="http://www.w3.org/2000/svg" width="42" height="34" fill="none"><g clip-path="url(#a)"><path fill="url(#b)" d="M6.822 26.12c.254-.254.602-.401.972-.401h33.52c.612 0 .919.739.486 1.172l-6.622 6.621a1.374 1.374 0 0 1-.972.402H.686a.687.687 0 0 1-.485-1.172l6.621-6.622Z"/><path fill="url(#c)" d="M6.82 1.397c.265-.253.613-.401.973-.401h33.52c.612 0 .918.74.485 1.172L35.176 8.79a1.374 1.374 0 0 1-.971.401H.685A.686.686 0 0 1 .2 8.02l6.622-6.622Z"/><path fill="url(#d)" d="M35.178 13.68a1.374 1.374 0 0 0-.972-.402H.686a.686.686 0 0 0-.485 1.172l6.621 6.622c.254.253.602.401.972.401h33.52c.612 0 .919-.739.486-1.172l-6.622-6.622Z"/></g><defs><linearGradient id="b" x1="38.112" x2="14.913" y1="-2.96" y2="41.474" gradientUnits="userSpaceOnUse"><stop stop-color="#00FFA3"/><stop offset="1" stop-color="#DC1FFF"/></linearGradient><linearGradient id="c" x1="27.967" x2="4.768" y1="-8.255" y2="36.179" gradientUnits="userSpaceOnUse"><stop stop-color="#00FFA3"/><stop offset="1" stop-color="#DC1FFF"/></linearGradient><linearGradient id="d" x1="33.008" x2="9.809" y1="-5.624" y2="38.81" gradientUnits="userSpaceOnUse"><stop stop-color="#00FFA3"/><stop offset="1" stop-color="#DC1FFF"/></linearGradient><clipPath id="a"><path fill="#fff" d="M0 .996h42v32.918H0z"/></clipPath></defs></svg>
